X:0666
M:6/8
L:1/8
Q:3/8=120
K:D
d|dAA  fdd |aff   fad     |gee  ecc |   ded  d2:|
a|ad'a ad'a|d'bb Tb2(a/b/)|bd'a bd'f|{a}gee Te3 |
  dAA  fdd |aff   fad     |agg  gec |   ddd  d2||
